public/img/PhoneOne.svg

<?xml version="1.0" encoding="UTF-8" standalone="no"?>
<svg width="219px" height="419px" viewBox="0 0 219 419" version="1.1" xmlns="http://www.w3.org/2000/svg" xmlns:xlink="http://www.w3.org/1999/xlink">
    <!-- Generator: Sketch 41.1 (35376) - http://www.bohemiancoding.com/sketch -->
    <title>PhoneOne</title>
    <desc>Created with Sketch.</desc>
    <defs>
        <rect id="path-1" x="0.445842564" y="0.488305191" width="189.493912" height="390.205671" rx="22"></rect>
        <filter x="-50%" y="-50%" width="200%" height="200%" filterUnits="objectBoundingBox" id="filter-2">
            <feMorphology radius="3" operator="dilate" in="SourceAlpha" result="shadowSpreadOuter1"></feMorphology>
            <feOffset dx="-2" dy="2" in="shadowSpreadOuter1" result="shadowOffsetOuter1"></feOffset>
            <feGaussianBlur stdDeviation="6.5" in="shadowOffsetOuter1" result="shadowBlurOuter1"></feGaussianBlur>
            <feComposite in="shadowBlurOuter1" in2="SourceAlpha" operator="out" result="shadowBlurOuter1"></feComposite>
            <feColorMatrix values="0 0 0 0 0.396078431   0 0 0 0 0.396078431   0 0 0 0 0.396078431  0 0 0 0.5 0" type="matrix" in="shadowBlurOuter1"></feColorMatrix>
        </filter>
        <mask id="mask-3" maskContentUnits="userSpaceOnUse" maskUnits="objectBoundingBox" x="-3" y="-3" width="195.493912" height="396.205671">
            <rect x="-2.55415744" y="-2.51169481" width="195.493912" height="396.205671" fill="white"></rect>
            <use xlink:href="#path-1" fill="black"></use>
        </mask>
        <linearGradient x1="50%" y1="0%" x2="50%" y2="59.9152678%" id="linearGradient-4">
            <stop stop-color="#BBE1F5" offset="0%"></stop>
            <stop stop-color="#FFFFFF" offset="100%"></stop>
        </linearGradient>
        <rect id="path-5" x="0.605541227" y="0.189074296" width="173.733834" height="303.387884"></rect>
        <path d="M155.7705,29.347797 C160.444785,29.347797 164.234043,25.5585397 164.234043,20.8842539 C164.234043,16.209968 160.444785,12.4207107 155.7705,12.4207107 C151.096214,12.4207107 147.306956,16.209968 147.306956,20.8842539 C147.306956,25.5585397 151.096214,29.347797 155.7705,29.347797 Z" id="path-7"></path>
        <filter x="-50%" y="-50%" width="200%" height="200%" filterUnits="objectBoundingBox" id="filter-8">
            <feOffset dx="0" dy="1" in="SourceAlpha" result="shadowOffsetOuter1"></feOffset>
            <feGaussianBlur stdDeviation="2" in="shadowOffsetOuter1" result="shadowBlurOuter1"></feGaussianBlur>
            <feColorMatrix values="0 0 0 0 0.348267432   0 0 0 0 0.348267432   0 0 0 0 0.348267432  0 0 0 0.5 0" type="matrix" in="shadowBlurOuter1"></feColorMatrix>
        </filter>
        <path d="M155.7705,54.7384266 C160.444785,54.7384266 164.234043,50.9491692 164.234043,46.2748834 C164.234043,41.6005976 160.444785,37.8113402 155.7705,37.8113402 C151.096214,37.8113402 147.306956,41.6005976 147.306956,46.2748834 C147.306956,50.9491692 151.096214,54.7384266 155.7705,54.7384266 Z" id="path-9"></path>
        <filter x="-50%" y="-50%" width="200%" height="200%" filterUnits="objectBoundingBox" id="filter-10">
            <feOffset dx="0" dy="1" in="SourceAlpha" result="shadowOffsetOuter1"></feOffset>
            <feGaussianBlur stdDeviation="2" in="shadowOffsetOuter1" result="shadowBlurOuter1"></feGaussianBlur>
            <feColorMatrix values="0 0 0 0 0.348267432   0 0 0 0 0.348267432   0 0 0 0 0.348267432  0 0 0 0.5 0" type="matrix" in="shadowBlurOuter1"></feColorMatrix>
        </filter>
    </defs>
    <g id="Page-1" stroke="none" stroke-width="1" fill="none" fill-rule="evenodd">
        <g id="1" transform="translate(-689.000000, -843.000000)">
            <g id="Group-15-Copy-3" transform="translate(-1.000000, 700.000000)">
                <g id="Phones" transform="translate(706.000000, 155.000000)">
                    <g id="PhoneOne">
                        <g id="Rectangle-480">
                            <use fill="black" fill-opacity="1" filter="url(#filter-2)" xlink:href="#path-1"></use>
                            <use fill="#333333" fill-rule="evenodd" xlink:href="#path-1"></use>
                            <use stroke="#333333" mask="url(#mask-3)" stroke-width="6" xlink:href="#path-1"></use>
                        </g>
                        <path d="M95.1951752,384.161924 C103.036554,384.161924 109.393248,377.80523 109.393248,369.963851 C109.393248,362.122472 103.036554,355.765779 95.1951752,355.765779 C87.3537963,355.765779 80.9971028,362.122472 80.9971028,369.963851 C80.9971028,377.80523 87.3537963,384.161924 95.1951752,384.161924 Z" id="Oval-213" stroke="#484F53" stroke-width="1.5"></path>
                        <g id="Sceen" transform="translate(7.806012, 43.384485)">
                            <mask id="mask-6" fill="white">
                                <use xlink:href="#path-5"></use>
                            </mask>
                            <use id="Rectangle-111-Copy-4" fill="url(#linearGradient-4)" xlink:href="#path-5"></use>
                            <polygon id="Rectangle-124" fill="#FFFFFF" mask="url(#mask-6)" points="10.0094781 13.3611044 106.870028 13.3611044 106.870028 18.0630728 29.8093216 18.0630728 10.0094781 18.0630728"></polygon>
                            <rect id="Rectangle-124-Copy-3" fill="#FFFFFF" mask="url(#mask-6)" x="10.0094781" y="22.7650412" width="64.8871644" height="4.70196843"></rect>
                            <rect id="Rectangle-124-Copy-5" fill="#FFFFFF" mask="url(#mask-6)" x="10.0094781" y="41.572915" width="39.4965348" height="4.70196843"></rect>
                            <rect id="Rectangle-124-Copy-4" fill="#FFFFFF" mask="url(#mask-6)" x="10.0094781" y="32.1689781" width="79.9334634" height="4.70196843"></rect>
                            <rect id="Rectangle-110" fill="#FFCE4B" mask="url(#mask-6)" x="120.975933" y="10.5399233" width="45.138897" height="20.6886611" rx="10.3443306"></rect>
                            <g id="Oval-9" mask="url(#mask-6)">
                                <use fill="black" fill-opacity="1" filter="url(#filter-8)" xlink:href="#path-7"></use>
                                <use fill="#FFFFFF" fill-rule="evenodd" xlink:href="#path-7"></use>
                            </g>
                            <rect id="Rectangle-110-Copy" fill="#A8D8F2" mask="url(#mask-6)" x="120.975933" y="35.9305528" width="45.138897" height="20.6886611" rx="10.3443306"></rect>
                            <g id="Oval-9-Copy" mask="url(#mask-6)">
                                <use fill="black" fill-opacity="1" filter="url(#filter-10)" xlink:href="#path-9"></use>
                                <use fill="#FFFFFF" fill-rule="evenodd" xlink:href="#path-9"></use>
                            </g>
                            <path d="M110.181903,370.85027 C212.248464,370.85027 294.98976,345.520275 294.98976,314.274142 C294.98976,300.153112 266.152986,234.759064 238.474562,234.759066 C210.796138,234.759068 206.843585,264.988246 177.535362,264.988249 C135.415359,264.988252 143.01872,201.754461 105.178163,201.754461 C68.0908402,201.754461 70.2770135,258.67595 44.2444954,258.519011 C13.5939861,258.334232 19.2984743,246.637704 -9.94203705,246.637703 C-39.1825484,246.637703 -74.6259537,295.640493 -74.6259537,314.274142 C-74.6259537,345.520275 8.11534213,370.85027 110.181903,370.85027 Z" id="Oval-5" fill="#A8D8F2" mask="url(#mask-6)"></path>
                            <path d="M15.2021407,358.625152 C117.268702,358.625152 200.009997,333.295157 200.009997,302.049024 C200.009997,287.927995 172.719086,222.576018 145.040662,222.57602 C117.362237,222.576022 111.863822,252.763128 82.5556001,252.763131 C40.4355964,252.763134 47.0770258,189.063041 9.23646863,189.063041 C-27.8508541,189.063041 -24.7027488,246.450832 -50.735267,246.293893 C-81.3857762,246.109114 -75.681288,234.412586 -104.921799,234.412585 C-134.162311,234.412585 -169.605716,283.415375 -169.605716,302.049024 C-169.605716,333.295157 -86.8644202,358.625152 15.2021407,358.625152 Z" id="Oval-5-Copy" fill="#FFD155" opacity="0.800000012" mask="url(#mask-6)"></path>
                        </g>
                        <rect id="Rectangle-480" fill="#484F53" x="81.905617" y="20.0801701" width="36.4911856" height="4.80147179" rx="2.4007359"></rect>
                        <ellipse id="Oval-212" fill="#484F53" cx="74.3895306" cy="22.480906" rx="2.4007359" ry="2.4007359"></ellipse>
                    </g>
                </g>
            </g>
        </g>
    </g>
</svg>

<svg width="219" height="419" viewBox="0 0 219 419" xmlns="http://www.w3.org/2000/svg" xmlns:xlink="http://www.w3.org/1999/xlink"><title>PhoneOne</title><desc>Created with Sketch.</desc><defs><rect id="a" x=".446" y=".488" width="189.494" height="390.206" rx="22"/><filter x="-50%" y="-50%" width="200%" height="200%" filterUnits="objectBoundingBox" id="b"><feMorphology radius="3" operator="dilate" in="SourceAlpha" result="shadowSpreadOuter1"/><feOffset dx="-2" dy="2" in="shadowSpreadOuter1" result="shadowOffsetOuter1"/><feGaussianBlur stdDeviation="6.5" in="shadowOffsetOuter1" result="shadowBlurOuter1"/><feComposite in="shadowBlurOuter1" in2="SourceAlpha" operator="out" result="shadowBlurOuter1"/><feColorMatrix values="0 0 0 0 0.396078431 0 0 0 0 0.396078431 0 0 0 0 0.396078431 0 0 0 0.5 0" in="shadowBlurOuter1"/></filter><mask id="c" x="-3" y="-3" width="195.494" height="396.206"><path fill="#fff" d="M-2.554-2.512h195.494v396.206h-195.494z"/><use xlink:href="#a"/></mask><linearGradient x1="50%" y1="0%" x2="50%" y2="59.915%" id="e"><stop stop-color="#BBE1F5" offset="0%"/><stop stop-color="#fff" offset="100%"/></linearGradient><path id="d" d="M.606.189h173.734v303.388h-173.734z"/><path d="M155.77 29.348c4.674 0 8.464-3.789 8.464-8.464 0-4.674-3.789-8.464-8.464-8.464-4.674 0-8.464 3.789-8.464 8.464 0 4.674 3.789 8.464 8.464 8.464z" id="h"/><filter x="-50%" y="-50%" width="200%" height="200%" filterUnits="objectBoundingBox" id="g"><feOffset dy="1" in="SourceAlpha" result="shadowOffsetOuter1"/><feGaussianBlur stdDeviation="2" in="shadowOffsetOuter1" result="shadowBlurOuter1"/><feColorMatrix values="0 0 0 0 0.348267432 0 0 0 0 0.348267432 0 0 0 0 0.348267432 0 0 0 0.5 0" in="shadowBlurOuter1"/></filter><path d="M155.77 54.738c4.674 0 8.464-3.789 8.464-8.464 0-4.674-3.789-8.464-8.464-8.464-4.674 0-8.464 3.789-8.464 8.464 0 4.674 3.789 8.464 8.464 8.464z" id="j"/><filter x="-50%" y="-50%" width="200%" height="200%" filterUnits="objectBoundingBox" id="i"><feOffset dy="1" in="SourceAlpha" result="shadowOffsetOuter1"/><feGaussianBlur stdDeviation="2" in="shadowOffsetOuter1" result="shadowBlurOuter1"/><feColorMatrix values="0 0 0 0 0.348267432 0 0 0 0 0.348267432 0 0 0 0 0.348267432 0 0 0 0.5 0" in="shadowBlurOuter1"/></filter></defs><g transform="translate(16 12)" fill="none"><g id="Rectangle-480"><use fill="#000" filter="url(#b)" xlink:href="#a"/><use fill="#333" xlink:href="#a"/><use stroke="#333" mask="url(#c)" stroke-width="6" xlink:href="#a"/></g><path d="M95.195 384.162c7.841 0 14.198-6.357 14.198-14.198s-6.357-14.198-14.198-14.198-14.198 6.357-14.198 14.198 6.357 14.198 14.198 14.198z" stroke="#484F53" stroke-width="1.5"/><g transform="translate(7.806 43.384)"><mask id="f"><use xlink:href="#d"/></mask><use fill="url(#e)" xlink:href="#d"/><path fill="#fff" mask="url(#f)" d="M10.009 13.361h96.861v4.702h-96.861z"/><path fill="#fff" mask="url(#f)" d="M10.009 22.765h64.887v4.702h-64.887z"/><path fill="#fff" mask="url(#f)" d="M10.009 41.573h39.497v4.702h-39.497z"/><path fill="#fff" mask="url(#f)" d="M10.009 32.169h79.933v4.702h-79.933z"/><rect fill="#FFCE4B" mask="url(#f)" x="120.976" y="10.54" width="45.139" height="20.689" rx="10.344"/><g mask="url(#f)"><use fill="#000" filter="url(#g)" xlink:href="#h"/><use fill="#fff" xlink:href="#h"/></g><rect fill="#A8D8F2" mask="url(#f)" x="120.976" y="35.931" width="45.139" height="20.689" rx="10.344"/><g mask="url(#f)"><use fill="#000" filter="url(#i)" xlink:href="#j"/><use fill="#fff" xlink:href="#j"/></g><path d="M110.182 370.85c102.067 0 184.808-25.33 184.808-56.576 0-14.121-28.837-79.515-56.515-79.515s-31.631 30.229-60.939 30.229c-42.12 0-34.517-63.234-72.357-63.234-37.087 0-34.901 56.921-60.934 56.765-30.651-.185-24.946-11.881-54.187-11.881-29.241 0-64.684 49.003-64.684 67.636 0 31.246 82.741 56.576 184.808 56.576z" fill="#A8D8F2" mask="url(#f)"/><path d="M15.202 358.625c102.067 0 184.808-25.33 184.808-56.576 0-14.121-27.291-79.473-54.969-79.473s-33.177 30.187-62.485 30.187c-42.12 0-35.479-63.7-73.319-63.7-37.087 0-33.939 57.388-59.972 57.231-30.651-.185-24.946-11.881-54.187-11.881-29.241 0-64.684 49.003-64.684 67.636 0 31.246 82.741 56.576 184.808 56.576z" fill="#FFD155" opacity=".8" mask="url(#f)"/></g><rect fill="#484F53" x="81.906" y="20.08" width="36.491" height="4.801" rx="2.401"/><ellipse fill="#484F53" cx="74.39" cy="22.481" rx="2.401" ry="2.401"/></g></svg>
